X: 16813
T: Harry Harper
R: hornpipe
M: 4/4
K: Cmajor
GF|ECEG CEGE|GcEc Gcec|fdBd ecGc|dcBA G2GF|
ECEG CEGE|GcEc Gcec|fdBd egBd|1 c2 e2 c2:|2 c2 e2 c2 ef||
gage c'gfa|gage cege|fdBd ecGc|dcBA G2 ef|
gage c'gfa|gage cege|fdBd egBd|cc'ge c2 ef|
gage c'gfa|gage cege|fdBd ecGc|dcBA G2 GF|
ECEG FDFA|GEGc AFAc|BGBd fdBd|c2 e2 c2||

